X:1
T:Title
%%score { ( 1 3 ) | ( 2 4 ) }
L:1/8
Q:1/4=100
M:4/4
K:Db
V:1 treble nm="Grand Piano"
V:3 treble 
V:2 bass 
V:4 bass 
V:1
 [FA]2 [FA][GB] [FA]2 FD | B2 BB [FA]4 | [FA]2 [A,EG][A,DF] [DFA]2 [A,EG][A,DF] | %3
w: William~J.~Kirkpatrick * * * * *|||
 [A,EA]2 [A,FA][A,DF] [A,CE]4 | [A,DF]2 [A,DF][A,EG] [DFA]2 FD | B2 Bc d4 | %6
w: |||
 [Fd]2 [Ac][GB] [FA] [Fd]2 [DF] | [CA]2 [CG][CE] D4 | [FA]2 [FA]>[FA] [FA]4 | B2 B>B [FA]4 | %10
w: ||||
 [Ad]2 [Ad][Bd] [=Gd]2 [Gc][Gd] | [Ae]6 z2 | z4 [Fd]4 |[M:5/4] B2 B>B d6 |[M:4/4] A2 AA c e2 e | %15
w: |||||
 [Fd]6 z2 |] %16
w: |
V:2
 [D,D]2 [D,D][D,D] [D,D]2 [D,A,D][D,F,] | [G,D]2 [G,B,D][G,B,G] [D,D]4 | [D,D]2 D,D, D,2 D,D, | %3
 C,2 D,D, A,,4 | D,2 D,D, D,2 [D,A,D][D,F,] | [G,D]2 [G,DG][G,DG] [G,B,G]4 | %6
 [D,A,]2 [D,D][D,D] [D,D] [D,A,]2 [D,A,] | [A,,A,]2 [A,,E,][A,,G,] [D,F,]4 | %8
 [D,D]2 [D,D]>[D,D] [D,D]4 | [G,DG]2 [G,DG]>[G,DG] [D,D]4 | %10
 [F,D]2 [F,A,][F,A,] [E,B,]2 [E,B,][E,B,] | [A,C]2 A,>A, A,G,F,E, | [D,D]2 [D,D]>[D,D] A,2 z2 | %13
[M:5/4][K:treble] [G,DG]2 [G,DG]>[G,DG] [G,B,G]6 | %14
[M:4/4] [A,DF]2 [A,DF][A,DF] [A,EG] [A,CG]2 [A,CG] | [D,A,]6 z2 |] %16
V:3
 x8 | x8 | x8 | x8 | x8 | x8 | x8 | x8 | x8 | x8 | x8 | z2 C>C C2 z2 | [FA]2 [FA]>[FA] z2 D2 | %13
[M:5/4] x10 |[M:4/4] x8 | x8 |] %16
V:4
 x8 | x8 | x8 | x8 | x8 | x8 | x8 | x8 | x8 | x8 | x8 | x8 | z4 D,4 |[M:5/4][K:treble] x10 | %14
[M:4/4] x8 | x8 |] %16

